groups/sulfur/sulfonyl.svg

<?xml version='1.0' encoding='iso-8859-1'?>
<svg version='1.1' baseProfile='full'
              xmlns='http://www.w3.org/2000/svg'
                      xmlns:rdkit='http://www.rdkit.org/xml'
                      xmlns:xlink='http://www.w3.org/1999/xlink'
                  xml:space='preserve'
width='256px' height='256px' viewBox='0 0 256 256'>
<!-- END OF HEADER -->
<rect style='opacity:1.0;fill:#FFFFFF;stroke:none' width='256.0' height='256.0' x='0.0' y='0.0'> </rect>
<path class='bond-0 atom-0 atom-1' d='M 18.9,123.7 L 85.4,123.8' style='fill:none;fill-rule:evenodd;stroke:#000000;stroke-width:2.0px;stroke-linecap:butt;stroke-linejoin:miter;stroke-opacity:1' />
<path class='bond-1 atom-1 atom-2' d='M 106.2,109.1 L 106.3,65.3' style='fill:none;fill-rule:evenodd;stroke:#000000;stroke-width:2.0px;stroke-linecap:butt;stroke-linejoin:miter;stroke-opacity:1' />
<path class='bond-1 atom-1 atom-2' d='M 94.0,109.1 L 94.1,65.2' style='fill:none;fill-rule:evenodd;stroke:#000000;stroke-width:2.0px;stroke-linecap:butt;stroke-linejoin:miter;stroke-opacity:1' />
<path class='bond-2 atom-1 atom-3' d='M 94.0,146.5 L 94.0,190.3' style='fill:none;fill-rule:evenodd;stroke:#000000;stroke-width:2.0px;stroke-linecap:butt;stroke-linejoin:miter;stroke-opacity:1' />
<path class='bond-2 atom-1 atom-3' d='M 106.2,146.5 L 106.2,190.4' style='fill:none;fill-rule:evenodd;stroke:#000000;stroke-width:2.0px;stroke-linecap:butt;stroke-linejoin:miter;stroke-opacity:1' />
<path class='bond-3 atom-1 atom-4' d='M 114.8,123.8 L 166.7,123.9' style='fill:none;fill-rule:evenodd;stroke:#000000;stroke-width:2.0px;stroke-linecap:butt;stroke-linejoin:miter;stroke-opacity:1' />
<path class='atom-1' d='M18.852,164.351 C21.8982,164.354 21.9015,160.292 18.8552,160.29 C15.809,160.287 15.8123,156.226 18.8585,156.228 C21.9047,156.231 21.908,152.169 18.8617,152.166 C15.8155,152.164 15.8188,148.102 18.865,148.105 C21.9112,148.107 21.9145,144.046 18.8682,144.043 C15.822,144.041 15.8253,139.979 18.8715,139.982 C21.9177,139.984 21.921,135.922 18.8747,135.92 C15.8285,135.917 15.8318,131.856 18.878,131.858 C21.9242,131.861 21.9275,127.799 18.8812,127.797 C15.835,127.794 15.8383,123.733 18.8845,123.735 C21.9307,123.737 21.934,119.676 18.8877,119.673 C15.8415,119.671 15.8448,115.609 18.891,115.612 C21.9372,115.614 21.9405,111.553 18.8942,111.55 C15.848,111.548 15.8512,107.486 18.8975,107.488 C21.9437,107.491 21.947,103.429 18.9007,103.427 C15.8545,103.424 15.8577,99.3628 18.904,99.3652 C21.9502,99.3676 21.9535,95.306 18.9072,95.3036 C15.861,95.3011 15.8642,91.2395 18.9105,91.2419 C21.9567,91.2444 21.9599,87.1827 18.9137,87.1803 C15.8675,87.1779 15.8707,83.1162 18.917,83.1187' style='fill:none;stroke:#7F7F7F;stroke-width:2.0px;stroke-linecap:butt;stroke-linejoin:miter;stroke-opacity:1' />
<text x='88.1' y='143.8' class='atom-1' style='font-size:40px;font-style:normal;font-weight:normal;fill-opacity:1;stroke:none;font-family:sans-serif;text-anchor:start;fill:#000000' >S</text>
<text x='88.2' y='62.6' class='atom-2' style='font-size:40px;font-style:normal;font-weight:normal;fill-opacity:1;stroke:none;font-family:sans-serif;text-anchor:start;fill:#000000' >O</text>
<text x='88.1' y='225.0' class='atom-3' style='font-size:40px;font-style:normal;font-weight:normal;fill-opacity:1;stroke:none;font-family:sans-serif;text-anchor:start;fill:#000000' >O</text>
<text x='169.3' y='143.9' class='atom-4' style='font-size:40px;font-style:normal;font-weight:normal;fill-opacity:1;stroke:none;font-family:sans-serif;text-anchor:start;fill:#000000' >C</text>
<text x='196.9' y='143.9' class='atom-4' style='font-size:40px;font-style:normal;font-weight:normal;fill-opacity:1;stroke:none;font-family:sans-serif;text-anchor:start;fill:#000000' >H</text>
<text x='224.5' y='159.9' class='atom-4' style='font-size:26px;font-style:normal;font-weight:normal;fill-opacity:1;stroke:none;font-family:sans-serif;text-anchor:start;fill:#000000' >3</text>
</svg>

<svg height="256" viewBox="0 0 256 256" width="256" xmlns="http://www.w3.org/2000/svg"><path d="m0 0h256v256h-256z" fill="#fff"/><g fill="none" stroke-width="2"><path d="m18.9 123.7 66.5.1" stroke="#000"/><path d="m106.2 109.1.1-43.8" stroke="#000"/><path d="m94 109.1.1-43.9" stroke="#000"/><path d="m94 146.5v43.8" stroke="#000"/><path d="m106.2 146.5v43.9" stroke="#000"/><path d="m114.8 123.8 51.9.1" stroke="#000"/><path d="m18.852 164.351c3.046.003 3.05-4.059.003-4.061-3.046-.003-3.043-4.064.004-4.062 3.046.003 3.049-4.059.003-4.062-3.046-.002-3.043-4.064.003-4.061 3.046.002 3.05-4.059.003-4.062-3.046-.002-3.043-4.064.004-4.061 3.046.002 3.049-4.06.003-4.062-3.046-.003-3.043-4.064.003-4.062 3.046.003 3.05-4.059.003-4.061-3.046-.003-3.043-4.064.004-4.062 3.046.002 3.049-4.059.003-4.062-3.046-.002-3.043-4.064.003-4.061 3.046.002 3.05-4.059.003-4.062-3.046-.002-3.043-4.064.004-4.062 3.046.003 3.049-4.059.003-4.061-3.046-.003-3.043-4.064.003-4.062 3.046.003 3.05-4.059.003-4.061-3.046-.003-3.043-4.064.004-4.062 3.046.002 3.049-4.059.003-4.062-3.046-.002-3.043-4.064.003-4.061" stroke="#7f7f7f"/></g><text font-family="sans-serif" font-size="40" x="88.1" y="143.8">S</text><text font-family="sans-serif" font-size="40" x="88.2" y="62.6">O</text><text font-family="sans-serif" font-size="40" x="88.1" y="225">O</text><text font-family="sans-serif" font-size="40" x="169.3" y="143.9">C</text><text font-family="sans-serif" font-size="40" x="196.9" y="143.9">H</text><text font-family="sans-serif" font-size="26" x="224.5" y="159.9">3</text></svg>
